images/tile_hex_4.svg

<svg id="eACjMUQWOgm1" xmlns="http://www.w3.org/2000/svg" xmlns:xlink="http://www.w3.org/1999/xlink" viewBox="0 0 273 275" shape-rendering="geometricPrecision" text-rendering="geometricPrecision"><g id="eACjMUQWOgm2"><path id="eACjMUQWOgm3" d="M126.967919,8.50335C132.232342,5.463934,140.766362,5.463185,146.032081,8.50335L243.448335,64.74665C248.712759,67.786066,252.980417,75.17637,252.980417,81.2567L252.980417,193.7433C252.980417,199.822133,248.714055,207.213185,243.448335,210.25335L146.032081,266.49665C140.767658,269.536066,132.233638,269.536815,126.967919,266.49665L29.551665,210.25335C24.287241,207.213934,20.019583,199.82363,20.019583,193.7433L20.019583,81.2567C20.019583,75.177867,24.285945,67.786815,29.551665,64.74665L126.967919,8.50335Z" fill="rgb(131,133,242)" fill-rule="evenodd" stroke="rgb(86,88,191)" stroke-width="4"/></g></svg>

<svg width="273" height="275" xmlns="http://www.w3.org/2000/svg" text-rendering="geometricPrecision" shape-rendering="geometricPrecision">

 <g>
  <title>Layer 1</title>
  <g id="eACjMUQWOgm2">
   <path stroke-width="4" stroke="rgb(86,88,191)" fill-rule="evenodd" fill="rgb(131,133,242)" d="m126.96792,8.50335c5.26442,-3.03942 13.79844,-3.04016 19.06416,0l97.41625,56.2433c5.26443,3.03942 9.53209,10.42972 9.53209,16.51005l0,112.4866c0,6.07883 -4.26636,13.46989 -9.53209,16.51005l-97.41625,56.2433c-5.26442,3.03942 -13.79844,3.04016 -19.06416,0l-97.41626,-56.2433c-5.26442,-3.03942 -9.53208,-10.42972 -9.53208,-16.51005l0,-112.4866c0,-6.07883 4.26637,-13.46988 9.53208,-16.51005l97.41626,-56.2433z" id="eACjMUQWOgm3"/>
  </g>
 </g>
</svg>
